Newaita-dark/apps/64/preferences-plugin.svg

<svg height="64" viewBox="0 0 64 64" width="64" xmlns="http://www.w3.org/2000/svg" xmlns:xlink="http://www.w3.org/1999/xlink"><linearGradient id="a"><stop offset="0" stop-opacity=".27451"/><stop offset="1" stop-opacity="0"/></linearGradient><linearGradient id="b" gradientTransform="matrix(.0281277 0 0 .125012 7.739798 24.231486)" gradientUnits="userSpaceOnUse" x1="254" x2="254" xlink:href="#a" y1="233.5" y2="254.666672"/><linearGradient id="c"><stop offset="0" stop-opacity=".313726"/><stop offset=".222222" stop-opacity=".27451"/><stop offset="1" stop-opacity="0"/></linearGradient><radialGradient id="d" cx="450.908936" cy="189.579361" gradientTransform="matrix(.00000035 -.156265 -.281277 -.0000002 70.523709 124.54458)" gradientUnits="userSpaceOnUse" r="21.166656" xlink:href="#c"/><radialGradient id="e" cx="450.908936" cy="189.579361" gradientTransform="matrix(-.00000035 .156265 .281277 .0000002 -40.755234 -17.701042)" gradientUnits="userSpaceOnUse" r="21.166656" xlink:href="#c"/><radialGradient id="f" cx="450.908936" cy="189.579361" gradientTransform="matrix(-.00000035 -.156265 .281277 -.0000002 -40.755234 124.54458)" gradientUnits="userSpaceOnUse" r="21.166656" xlink:href="#c"/><radialGradient id="g" cx="450.908936" cy="189.579361" gradientTransform="matrix(.00000035 .156265 -.281277 .0000002 70.523702 -17.701043)" gradientUnits="userSpaceOnUse" r="21.166656" xlink:href="#c"/><linearGradient id="h" gradientTransform="matrix(.0281277 0 0 .125012 28.908492 24.231486)" gradientUnits="userSpaceOnUse" x1="254" x2="254" xlink:href="#a" y1="233.5" y2="254.666672"/><radialGradient id="i" cx="450.908936" cy="189.579361" gradientTransform="matrix(.00000035 -.156265 -.281277 -.0000002 91.692403 124.54458)" gradientUnits="userSpaceOnUse" r="21.166656" xlink:href="#c"/><radialGradient id="j" cx="450.908936" cy="189.579361" gradientTransform="matrix(-.00000035 .156265 .281277 .0000002 -19.586541 -17.701042)" gradientUnits="userSpaceOnUse" r="21.166656" xlink:href="#c"/><radialGradient id="k" cx="450.908936" cy="189.579361" gradientTransform="matrix(-.00000035 -.156265 .281277 -.0000002 -19.586541 124.54458)" gradientUnits="userSpaceOnUse" r="21.166656" xlink:href="#c"/><radialGradient id="l" cx="450.908936" cy="189.579361" gradientTransform="matrix(.00000035 .156265 -.281277 .0000002 91.692395 -17.701043)" gradientUnits="userSpaceOnUse" r="21.166656" xlink:href="#c"/><linearGradient id="m" gradientUnits="userSpaceOnUse" x1="25.137836" x2="25.137836" y1="53.42180990428" y2="5.792224912"><stop offset="0" stop-color="#5c6bc0"/><stop offset="1" stop-color="#7986cb"/></linearGradient><path d="m11.90625 53.421875h5.953125v2.644531h-5.953125zm0 0" fill="url(#b)"/><path d="m17.859375 53.421875h5.292969v-2.644531h-5.292969zm0 0" fill="url(#d)"/><path d="m11.90625 53.421875h-5.292969v2.644531h5.292969zm0 0" fill="url(#e)"/><path d="m11.90625 53.421875h-5.292969v-2.644531h5.292969zm0 0" fill="url(#f)"/><path d="m17.859375 53.421875h5.292969v2.644531h-5.292969zm0 0" fill="url(#g)"/><path d="m33.074219 53.421875h5.957031v2.644531h-5.957031zm0 0" fill="url(#h)"/><path d="m39.03125 53.421875h5.289062v-2.644531h-5.289062zm0 0" fill="url(#i)"/><path d="m33.074219 53.421875h-5.289063v2.644531h5.289063zm0 0" fill="url(#j)"/><path d="m33.074219 53.421875h-5.289063v-2.644531h5.289063zm0 0" fill="url(#k)"/><path d="m39.03125 53.421875h5.289062v2.644531h-5.289062zm0 0" fill="url(#l)"/><path d="m25.136719 5.792969c-3.664063 0-6.613281 2.949219-6.613281 6.613281 0 2.175781 1.035156 4.097656 2.644531 5.300781v1.316407h-11.90625c-.734375 0-1.324219.589843-1.324219 1.320312v11.910156h1.316406c1.203125-1.609375 3.125-2.648437 5.300782-2.648437 3.664062 0 6.613281 2.953125 6.613281 6.617187 0 3.664063-2.949219 6.613282-6.613281 6.613282-2.175782 0-4.097657-1.035157-5.300782-2.644532h-1.316406v11.90625c0 .734375.589844 1.324219 1.324219 1.324219h11.90625v-1.316406c-1.609375-1.203125-2.644531-3.125-2.644531-5.300781 0-3.664063 2.949218-6.613282 6.613281-6.613282 3.664062 0 6.617187 2.949219 6.617187 6.613282 0 2.175781-1.039062 4.097656-2.648437 5.300781v1.316406h11.910156c.730469 0 1.320313-.589844 1.320313-1.324219v-11.90625h1.316406c1.207031 1.609375 3.128906 2.644532 5.300781 2.644532 3.664063 0 6.613281-2.949219 6.613281-6.613282 0-3.664062-2.949218-6.617187-6.613281-6.617187-2.171875 0-4.09375 1.039062-5.300781 2.648437h-1.316406v-11.910156c0-.730469-.589844-1.320312-1.320313-1.320312h-11.910156v-1.316407c1.609375-1.203125 2.648437-3.125 2.648437-5.300781 0-3.664062-2.953125-6.613281-6.617187-6.613281zm0 0" fill="url(#m)"/><path d="m25.136719 5.792969c-3.664063 0-6.613281 2.949219-6.613281 6.613281 0 .167969.007812.332031.019531.492188.253906-3.429688 3.097656-6.113282 6.59375-6.113282 3.496093 0 6.34375 2.683594 6.597656 6.113282.011719-.160157.019531-.324219.019531-.492188 0-3.664062-2.953125-6.613281-6.617187-6.613281zm-15.875 13.230469c-.734375 0-1.324219.589843-1.324219 1.320312v.996094c0-.734375.589844-1.324219 1.324219-1.324219h11.90625v-.992187zm19.84375 0v.992187h11.910156c.730469 0 1.320313.589844 1.320313 1.324219v-.996094c0-.730469-.589844-1.320312-1.320313-1.320312zm19.847656 10.582031c-2.171875 0-4.09375 1.039062-5.300781 2.648437h-1.316406v.992188h1.316406c1.207031-1.609375 3.128906-2.648438 5.300781-2.648438 3.496094 0 6.34375 2.691406 6.597656 6.121094.011719-.164062.015625-.328125.015625-.496094 0-3.664062-2.949218-6.617187-6.613281-6.617187zm-27.800781 7.113281c-.253906 3.429688-3.101563 6.117188-6.597656 6.117188-2.175782 0-4.097657-1.035157-5.300782-2.644532h-1.316406v.992188h1.316406c1.203125 1.609375 3.125 2.644531 5.300782 2.644531 3.664062 0 6.613281-2.949219 6.613281-6.613281 0-.167969-.003907-.332032-.015625-.496094zm-2.609375 10.578125c-.015625.167969-.019531.332031-.019531.5 0 2.175781 1.035156 4.097656 2.644531 5.300781v-.992187c-1.484375-1.113281-2.484375-2.835938-2.625-4.808594zm13.191406 0c-.144531 1.972656-1.140625 3.695313-2.628906 4.808594v.992187c1.609375-1.203125 2.648437-3.125 2.648437-5.300781 0-.167969-.007812-.332031-.019531-.5zm0 0" fill="#fff" fill-opacity=".392157"/><path d="m18.542969 11.90625c-.015625.164062-.019531.332031-.019531.5 0 2.175781 1.035156 4.097656 2.644531 5.300781v-.992187c-1.484375-1.113282-2.484375-2.839844-2.625-4.808594zm13.191406 0c-.144531 1.96875-1.140625 3.695312-2.628906 4.808594v.992187c1.609375-1.203125 2.648437-3.125 2.648437-5.300781 0-.167969-.007812-.335938-.019531-.5zm-17.179687 16.707031c-2.175782 0-4.097657 1.039063-5.300782 2.648438h-1.316406v.992187h1.316406c1.203125-1.609375 3.125-2.648437 5.300782-2.648437 3.496093 0 6.34375 2.6875 6.597656 6.121093.011718-.164062.015625-.328124.015625-.496093 0-3.664063-2.949219-6.617188-6.613281-6.617188zm40.996093 7.113281c-.253906 3.429688-3.101562 6.117188-6.597656 6.117188-2.171875 0-4.09375-1.035156-5.300781-2.644531h-1.316406v.992187h1.316406c1.207031 1.609375 3.128906 2.644532 5.300781 2.644532 3.664063 0 6.613281-2.949219 6.613281-6.613282 0-.167968-.003906-.332031-.015625-.496094zm-30.414062 3.472657c-3.664063 0-6.613281 2.949219-6.613281 6.613281 0 .167969.007812.332031.019531.492188.253906-3.429688 3.097656-6.113282 6.59375-6.113282 3.496093 0 6.34375 2.683594 6.597656 6.113282.011719-.160157.019531-.324219.019531-.492188 0-3.664062-2.953125-6.613281-6.617187-6.613281zm-17.199219 11.90625v.992187c0 .734375.589844 1.324219 1.324219 1.324219h11.90625v-.992187h-11.90625c-.734375 0-1.324219-.589844-1.324219-1.324219zm34.398438 0c0 .734375-.589844 1.324219-1.320313 1.324219h-11.910156v.992187h11.910156c.730469 0 1.320313-.589844 1.320313-1.324219zm0 0" fill-opacity=".235294"/><path d="m759.966837 175.140764c-110.776829 0-199.941547 89.164719-199.941547 199.941547 0 65.781124 31.296225 123.885814 79.952999 160.260295v39.799351h-359.965644c-22.202605 0-40.035549 17.832944-40.035549 39.91745v360.083743h39.799351c36.374481-48.656773 94.479172-80.071098 160.260295-80.071098 110.776829 0 199.941547 89.282817 199.941547 200.059646s-89.164718 199.941547-199.941547 199.941547c-65.781123 0-123.885814-31.296225-160.260295-79.952999h-39.799351v359.965644c0 22.202605 17.832944 40.035549 40.035549 40.035549h359.965644v-39.799351c-48.656774-36.374481-79.952999-94.479172-79.952999-160.260295 0-110.776829 89.164718-199.941547 199.941547-199.941547s200.059646 89.164718 200.059646 199.941547c0 65.781123-31.414325 123.885814-80.071098 160.260295v39.799351h360.083743c22.084506 0 39.91745-17.832944 39.91745-40.035549v-359.965644h39.799351c36.49258 48.656774 94.59727 79.952999 160.260295 79.952999 110.776828 0 199.941547-89.164718 199.941547-199.941547s-89.164719-200.059646-199.941547-200.059646c-65.663025 0-123.767715 31.414325-160.260295 80.071098h-39.799351v-360.083743c0-22.084506-17.832944-39.91745-39.91745-39.91745h-360.083743v-39.799351c48.656773-36.374481 80.071098-94.479171 80.071098-160.260295 0-110.776828-89.282817-199.941547-200.059646-199.941547zm0 0" fill="none" stroke="#212121" stroke-linecap="round" stroke-linejoin="round" stroke-width="11.338583" transform="scale(.0330761)"/></svg>

<?xml version="1.0" encoding="UTF-8"?>
<svg xmlns="http://www.w3.org/2000/svg" xmlns:xlink="http://www.w3.org/1999/xlink" width="64px" height="64px" viewBox="0 0 64 64" version="1.1">
<defs>
<linearGradient id="linear0" gradientUnits="userSpaceOnUse" x1="254" y1="233.5" x2="254" y2="254.666672" gradientTransform="matrix(0.0281277,0,0,0.125012,7.739798,24.231486)">
<stop offset="0" style="stop-color:rgb(0%,0%,0%);stop-opacity:0.27451;"/>
<stop offset="1" style="stop-color:rgb(0%,0%,0%);stop-opacity:0;"/>
</linearGradient>
<radialGradient id="radial0" gradientUnits="userSpaceOnUse" cx="450.908936" cy="189.579361" fx="450.908936" fy="189.579361" r="21.166656" gradientTransform="matrix(0.000000348341,-0.156265,-0.281277,-0.000000203077,70.523709,124.54458)">
<stop offset="0" style="stop-color:rgb(0%,0%,0%);stop-opacity:0.313726;"/>
<stop offset="0.222222" style="stop-color:rgb(0%,0%,0%);stop-opacity:0.27451;"/>
<stop offset="1" style="stop-color:rgb(0%,0%,0%);stop-opacity:0;"/>
</radialGradient>
<radialGradient id="radial1" gradientUnits="userSpaceOnUse" cx="450.908936" cy="189.579361" fx="450.908936" fy="189.579361" r="21.166656" gradientTransform="matrix(-0.000000348341,0.156265,0.281277,0.000000203077,-40.755234,-17.701042)">
<stop offset="0" style="stop-color:rgb(0%,0%,0%);stop-opacity:0.313726;"/>
<stop offset="0.222222" style="stop-color:rgb(0%,0%,0%);stop-opacity:0.27451;"/>
<stop offset="1" style="stop-color:rgb(0%,0%,0%);stop-opacity:0;"/>
</radialGradient>
<radialGradient id="radial2" gradientUnits="userSpaceOnUse" cx="450.908936" cy="189.579361" fx="450.908936" fy="189.579361" r="21.166656" gradientTransform="matrix(-0.000000348341,-0.156265,0.281277,-0.000000203077,-40.755234,124.54458)">
<stop offset="0" style="stop-color:rgb(0%,0%,0%);stop-opacity:0.313726;"/>
<stop offset="0.222222" style="stop-color:rgb(0%,0%,0%);stop-opacity:0.27451;"/>
<stop offset="1" style="stop-color:rgb(0%,0%,0%);stop-opacity:0;"/>
</radialGradient>
<radialGradient id="radial3" gradientUnits="userSpaceOnUse" cx="450.908936" cy="189.579361" fx="450.908936" fy="189.579361" r="21.166656" gradientTransform="matrix(0.000000348341,0.156265,-0.281277,0.000000203077,70.523702,-17.701043)">
<stop offset="0" style="stop-color:rgb(0%,0%,0%);stop-opacity:0.313726;"/>
<stop offset="0.222222" style="stop-color:rgb(0%,0%,0%);stop-opacity:0.27451;"/>
<stop offset="1" style="stop-color:rgb(0%,0%,0%);stop-opacity:0;"/>
</radialGradient>
<linearGradient id="linear1" gradientUnits="userSpaceOnUse" x1="254" y1="233.5" x2="254" y2="254.666672" gradientTransform="matrix(0.0281277,0,0,0.125012,28.908492,24.231486)">
<stop offset="0" style="stop-color:rgb(0%,0%,0%);stop-opacity:0.27451;"/>
<stop offset="1" style="stop-color:rgb(0%,0%,0%);stop-opacity:0;"/>
</linearGradient>
<radialGradient id="radial4" gradientUnits="userSpaceOnUse" cx="450.908936" cy="189.579361" fx="450.908936" fy="189.579361" r="21.166656" gradientTransform="matrix(0.000000348341,-0.156265,-0.281277,-0.000000203077,91.692403,124.54458)">
<stop offset="0" style="stop-color:rgb(0%,0%,0%);stop-opacity:0.313726;"/>
<stop offset="0.222222" style="stop-color:rgb(0%,0%,0%);stop-opacity:0.27451;"/>
<stop offset="1" style="stop-color:rgb(0%,0%,0%);stop-opacity:0;"/>
</radialGradient>
<radialGradient id="radial5" gradientUnits="userSpaceOnUse" cx="450.908936" cy="189.579361" fx="450.908936" fy="189.579361" r="21.166656" gradientTransform="matrix(-0.000000348341,0.156265,0.281277,0.000000203077,-19.586541,-17.701042)">
<stop offset="0" style="stop-color:rgb(0%,0%,0%);stop-opacity:0.313726;"/>
<stop offset="0.222222" style="stop-color:rgb(0%,0%,0%);stop-opacity:0.27451;"/>
<stop offset="1" style="stop-color:rgb(0%,0%,0%);stop-opacity:0;"/>
</radialGradient>
<radialGradient id="radial6" gradientUnits="userSpaceOnUse" cx="450.908936" cy="189.579361" fx="450.908936" fy="189.579361" r="21.166656" gradientTransform="matrix(-0.000000348341,-0.156265,0.281277,-0.000000203077,-19.586541,124.54458)">
<stop offset="0" style="stop-color:rgb(0%,0%,0%);stop-opacity:0.313726;"/>
<stop offset="0.222222" style="stop-color:rgb(0%,0%,0%);stop-opacity:0.27451;"/>
<stop offset="1" style="stop-color:rgb(0%,0%,0%);stop-opacity:0;"/>
</radialGradient>
<radialGradient id="radial7" gradientUnits="userSpaceOnUse" cx="450.908936" cy="189.579361" fx="450.908936" fy="189.579361" r="21.166656" gradientTransform="matrix(0.000000348341,0.156265,-0.281277,0.000000203077,91.692395,-17.701043)">
<stop offset="0" style="stop-color:rgb(0%,0%,0%);stop-opacity:0.313726;"/>
<stop offset="0.222222" style="stop-color:rgb(0%,0%,0%);stop-opacity:0.27451;"/>
<stop offset="1" style="stop-color:rgb(0%,0%,0%);stop-opacity:0;"/>
</radialGradient>
<linearGradient id="linear2" gradientUnits="userSpaceOnUse" x1="760" y1="1615.118164" x2="760" y2="175.118134" gradientTransform="matrix(0.0330761,0,0,0.0330761,0,0)">
<stop offset="0" style="stop-color:rgb(36.078432%,41.960785%,75.294119%);stop-opacity:1;"/>
<stop offset="1" style="stop-color:rgb(47.450981%,52.549022%,79.607844%);stop-opacity:1;"/>
</linearGradient>
</defs>
<g id="surface1">
<path style=" stroke:none;fill-rule:nonzero;fill:url(#linear0);" d="M 11.90625 53.421875 L 17.859375 53.421875 L 17.859375 56.066406 L 11.90625 56.066406 Z M 11.90625 53.421875 "/>
<path style=" stroke:none;fill-rule:nonzero;fill:url(#radial0);" d="M 17.859375 53.421875 L 23.152344 53.421875 L 23.152344 50.777344 L 17.859375 50.777344 Z M 17.859375 53.421875 "/>
<path style=" stroke:none;fill-rule:nonzero;fill:url(#radial1);" d="M 11.90625 53.421875 L 6.613281 53.421875 L 6.613281 56.066406 L 11.90625 56.066406 Z M 11.90625 53.421875 "/>
<path style=" stroke:none;fill-rule:nonzero;fill:url(#radial2);" d="M 11.90625 53.421875 L 6.613281 53.421875 L 6.613281 50.777344 L 11.90625 50.777344 Z M 11.90625 53.421875 "/>
<path style=" stroke:none;fill-rule:nonzero;fill:url(#radial3);" d="M 17.859375 53.421875 L 23.152344 53.421875 L 23.152344 56.066406 L 17.859375 56.066406 Z M 17.859375 53.421875 "/>
<path style=" stroke:none;fill-rule:nonzero;fill:url(#linear1);" d="M 33.074219 53.421875 L 39.03125 53.421875 L 39.03125 56.066406 L 33.074219 56.066406 Z M 33.074219 53.421875 "/>
<path style=" stroke:none;fill-rule:nonzero;fill:url(#radial4);" d="M 39.03125 53.421875 L 44.320312 53.421875 L 44.320312 50.777344 L 39.03125 50.777344 Z M 39.03125 53.421875 "/>
<path style=" stroke:none;fill-rule:nonzero;fill:url(#radial5);" d="M 33.074219 53.421875 L 27.785156 53.421875 L 27.785156 56.066406 L 33.074219 56.066406 Z M 33.074219 53.421875 "/>
<path style=" stroke:none;fill-rule:nonzero;fill:url(#radial6);" d="M 33.074219 53.421875 L 27.785156 53.421875 L 27.785156 50.777344 L 33.074219 50.777344 Z M 33.074219 53.421875 "/>
<path style=" stroke:none;fill-rule:nonzero;fill:url(#radial7);" d="M 39.03125 53.421875 L 44.320312 53.421875 L 44.320312 56.066406 L 39.03125 56.066406 Z M 39.03125 53.421875 "/>
<path style=" stroke:none;fill-rule:nonzero;fill:url(#linear2);" d="M 25.136719 5.792969 C 21.472656 5.792969 18.523438 8.742188 18.523438 12.40625 C 18.523438 14.582031 19.558594 16.503906 21.167969 17.707031 L 21.167969 19.023438 L 9.261719 19.023438 C 8.527344 19.023438 7.9375 19.613281 7.9375 20.34375 L 7.9375 32.253906 L 9.253906 32.253906 C 10.457031 30.644531 12.378906 29.605469 14.554688 29.605469 C 18.21875 29.605469 21.167969 32.558594 21.167969 36.222656 C 21.167969 39.886719 18.21875 42.835938 14.554688 42.835938 C 12.378906 42.835938 10.457031 41.800781 9.253906 40.191406 L 7.9375 40.191406 L 7.9375 52.097656 C 7.9375 52.832031 8.527344 53.421875 9.261719 53.421875 L 21.167969 53.421875 L 21.167969 52.105469 C 19.558594 50.902344 18.523438 48.980469 18.523438 46.804688 C 18.523438 43.140625 21.472656 40.191406 25.136719 40.191406 C 28.800781 40.191406 31.753906 43.140625 31.753906 46.804688 C 31.753906 48.980469 30.714844 50.902344 29.105469 52.105469 L 29.105469 53.421875 L 41.015625 53.421875 C 41.746094 53.421875 42.335938 52.832031 42.335938 52.097656 L 42.335938 40.191406 L 43.652344 40.191406 C 44.859375 41.800781 46.78125 42.835938 48.953125 42.835938 C 52.617188 42.835938 55.566406 39.886719 55.566406 36.222656 C 55.566406 32.558594 52.617188 29.605469 48.953125 29.605469 C 46.78125 29.605469 44.859375 30.644531 43.652344 32.253906 L 42.335938 32.253906 L 42.335938 20.34375 C 42.335938 19.613281 41.746094 19.023438 41.015625 19.023438 L 29.105469 19.023438 L 29.105469 17.707031 C 30.714844 16.503906 31.753906 14.582031 31.753906 12.40625 C 31.753906 8.742188 28.800781 5.792969 25.136719 5.792969 Z M 25.136719 5.792969 "/>
<path style=" stroke:none;fill-rule:nonzero;fill:rgb(100%,100%,100%);fill-opacity:0.392157;" d="M 25.136719 5.792969 C 21.472656 5.792969 18.523438 8.742188 18.523438 12.40625 C 18.523438 12.574219 18.53125 12.738281 18.542969 12.898438 C 18.796875 9.46875 21.640625 6.785156 25.136719 6.785156 C 28.632812 6.785156 31.480469 9.46875 31.734375 12.898438 C 31.746094 12.738281 31.753906 12.574219 31.753906 12.40625 C 31.753906 8.742188 28.800781 5.792969 25.136719 5.792969 Z M 9.261719 19.023438 C 8.527344 19.023438 7.9375 19.613281 7.9375 20.34375 L 7.9375 21.339844 C 7.9375 20.605469 8.527344 20.015625 9.261719 20.015625 L 21.167969 20.015625 L 21.167969 19.023438 Z M 29.105469 19.023438 L 29.105469 20.015625 L 41.015625 20.015625 C 41.746094 20.015625 42.335938 20.605469 42.335938 21.339844 L 42.335938 20.34375 C 42.335938 19.613281 41.746094 19.023438 41.015625 19.023438 Z M 48.953125 29.605469 C 46.78125 29.605469 44.859375 30.644531 43.652344 32.253906 L 42.335938 32.253906 L 42.335938 33.246094 L 43.652344 33.246094 C 44.859375 31.636719 46.78125 30.597656 48.953125 30.597656 C 52.449219 30.597656 55.296875 33.289062 55.550781 36.71875 C 55.5625 36.554688 55.566406 36.390625 55.566406 36.222656 C 55.566406 32.558594 52.617188 29.605469 48.953125 29.605469 Z M 21.152344 36.71875 C 20.898438 40.148438 18.050781 42.835938 14.554688 42.835938 C 12.378906 42.835938 10.457031 41.800781 9.253906 40.191406 L 7.9375 40.191406 L 7.9375 41.183594 L 9.253906 41.183594 C 10.457031 42.792969 12.378906 43.828125 14.554688 43.828125 C 18.21875 43.828125 21.167969 40.878906 21.167969 37.214844 C 21.167969 37.046875 21.164062 36.882812 21.152344 36.71875 Z M 18.542969 47.296875 C 18.527344 47.464844 18.523438 47.628906 18.523438 47.796875 C 18.523438 49.972656 19.558594 51.894531 21.167969 53.097656 L 21.167969 52.105469 C 19.683594 50.992188 18.683594 49.269531 18.542969 47.296875 Z M 31.734375 47.296875 C 31.589844 49.269531 30.59375 50.992188 29.105469 52.105469 L 29.105469 53.097656 C 30.714844 51.894531 31.753906 49.972656 31.753906 47.796875 C 31.753906 47.628906 31.746094 47.464844 31.734375 47.296875 Z M 31.734375 47.296875 "/>
<path style=" stroke:none;fill-rule:nonzero;fill:rgb(0%,0%,0%);fill-opacity:0.235294;" d="M 18.542969 11.90625 C 18.527344 12.070312 18.523438 12.238281 18.523438 12.40625 C 18.523438 14.582031 19.558594 16.503906 21.167969 17.707031 L 21.167969 16.714844 C 19.683594 15.601562 18.683594 13.875 18.542969 11.90625 Z M 31.734375 11.90625 C 31.589844 13.875 30.59375 15.601562 29.105469 16.714844 L 29.105469 17.707031 C 30.714844 16.503906 31.753906 14.582031 31.753906 12.40625 C 31.753906 12.238281 31.746094 12.070312 31.734375 11.90625 Z M 14.554688 28.613281 C 12.378906 28.613281 10.457031 29.652344 9.253906 31.261719 L 7.9375 31.261719 L 7.9375 32.253906 L 9.253906 32.253906 C 10.457031 30.644531 12.378906 29.605469 14.554688 29.605469 C 18.050781 29.605469 20.898438 32.292969 21.152344 35.726562 C 21.164062 35.5625 21.167969 35.398438 21.167969 35.230469 C 21.167969 31.566406 18.21875 28.613281 14.554688 28.613281 Z M 55.550781 35.726562 C 55.296875 39.15625 52.449219 41.84375 48.953125 41.84375 C 46.78125 41.84375 44.859375 40.808594 43.652344 39.199219 L 42.335938 39.199219 L 42.335938 40.191406 L 43.652344 40.191406 C 44.859375 41.800781 46.78125 42.835938 48.953125 42.835938 C 52.617188 42.835938 55.566406 39.886719 55.566406 36.222656 C 55.566406 36.054688 55.5625 35.890625 55.550781 35.726562 Z M 25.136719 39.199219 C 21.472656 39.199219 18.523438 42.148438 18.523438 45.8125 C 18.523438 45.980469 18.53125 46.144531 18.542969 46.304688 C 18.796875 42.875 21.640625 40.191406 25.136719 40.191406 C 28.632812 40.191406 31.480469 42.875 31.734375 46.304688 C 31.746094 46.144531 31.753906 45.980469 31.753906 45.8125 C 31.753906 42.148438 28.800781 39.199219 25.136719 39.199219 Z M 7.9375 51.105469 L 7.9375 52.097656 C 7.9375 52.832031 8.527344 53.421875 9.261719 53.421875 L 21.167969 53.421875 L 21.167969 52.429688 L 9.261719 52.429688 C 8.527344 52.429688 7.9375 51.839844 7.9375 51.105469 Z M 42.335938 51.105469 C 42.335938 51.839844 41.746094 52.429688 41.015625 52.429688 L 29.105469 52.429688 L 29.105469 53.421875 L 41.015625 53.421875 C 41.746094 53.421875 42.335938 52.832031 42.335938 52.097656 Z M 42.335938 51.105469 "/>
<path style="fill:none;stroke-width:11.338583;stroke-linecap:round;stroke-linejoin:round;stroke:rgb(12.941177%,12.941177%,12.941177%);stroke-opacity:1;stroke-miterlimit:4;" d="M 759.966837 175.140764 C 649.190008 175.140764 560.02529 264.305483 560.02529 375.082311 C 560.02529 440.863435 591.321515 498.968125 639.978289 535.342606 L 639.978289 575.141957 L 280.012645 575.141957 C 257.81004 575.141957 239.977096 592.974901 239.977096 615.059407 L 239.977096 975.14315 L 279.776447 975.14315 C 316.150928 926.486377 374.255619 895.072052 440.036742 895.072052 C 550.813571 895.072052 639.978289 984.354869 639.978289 1095.131698 C 639.978289 1205.908527 550.813571 1295.073245 440.036742 1295.073245 C 374.255619 1295.073245 316.150928 1263.77702 279.776447 1215.120246 L 239.977096 1215.120246 L 239.977096 1575.08589 C 239.977096 1597.288495 257.81004 1615.121439 280.012645 1615.121439 L 639.978289 1615.121439 L 639.978289 1575.322088 C 591.321515 1538.947607 560.02529 1480.842916 560.02529 1415.061793 C 560.02529 1304.284964 649.190008 1215.120246 759.966837 1215.120246 C 870.743666 1215.120246 960.026483 1304.284964 960.026483 1415.061793 C 960.026483 1480.842916 928.612158 1538.947607 879.955385 1575.322088 L 879.955385 1615.121439 L 1240.039128 1615.121439 C 1262.123634 1615.121439 1279.956578 1597.288495 1279.956578 1575.08589 L 1279.956578 1215.120246 L 1319.755929 1215.120246 C 1356.248509 1263.77702 1414.353199 1295.073245 1480.016224 1295.073245 C 1590.793052 1295.073245 1679.957771 1205.908527 1679.957771 1095.131698 C 1679.957771 984.354869 1590.793052 895.072052 1480.016224 895.072052 C 1414.353199 895.072052 1356.248509 926.486377 1319.755929 975.14315 L 1279.956578 975.14315 L 1279.956578 615.059407 C 1279.956578 592.974901 1262.123634 575.141957 1240.039128 575.141957 L 879.955385 575.141957 L 879.955385 535.342606 C 928.612158 498.968125 960.026483 440.863435 960.026483 375.082311 C 960.026483 264.305483 870.743666 175.140764 759.966837 175.140764 Z M 759.966837 175.140764 " transform="matrix(0.0330761,0,0,0.0330761,0,0)"/>
</g>
</svg>
